Assets/Models/Hall/Kim_Amland_Photographic_02.cube
#Copyright: (C) Copyright 2017 Kim Amland
TITLE "Kim Amland - Photographic 02"
#LUT size
LUT_3D_SIZE 5
#data domain
#LUT data points
DOMAIN_MIN 0.000000 0.000000 0.000000
DOMAIN_MAX 0.903226 0.903226 0.903226
0.000000 0.000000 0.000000
0.161316 0.003937 0.012726
0.575104 0.016479 0.041138
0.839447 0.068054 0.092896
0.972137 0.167450 0.191986
0.012726 0.207886 0.020416
0.220947 0.212463 0.020599
0.628021 0.240570 0.051758
0.871704 0.293579 0.105621
0.976074 0.367584 0.199554
0.048767 0.597595 0.058990
0.264313 0.625671 0.044250
0.647278 0.613068 0.052795
0.882538 0.618958 0.093536
0.975677 0.647339 0.183594
0.097015 0.809204 0.104706
0.340149 0.829559 0.115143
0.663177 0.848511 0.104614
0.878632 0.844604 0.084869
0.972260 0.847229 0.148712
0.129486 0.889801 0.137268
0.383453 0.914154 0.160767
0.671204 0.932373 0.156952
0.864197 0.936005 0.141174
0.957153 0.935974 0.125610
0.004822 0.012543 0.104126
0.184021 0.024536 0.182556
0.609955 0.048218 0.255524
0.863312 0.104340 0.335846
0.975311 0.188812 0.410706
0.015594 0.221069 0.211761
0.221344 0.221893 0.221741
0.619476 0.258362 0.269073
0.850647 0.303680 0.324829
0.968353 0.376251 0.402527
0.035492 0.643463 0.268066
0.269043 0.632294 0.277527
0.643921 0.628357 0.297241
0.875977 0.633057 0.345581
0.972137 0.655487 0.411896
0.105225 0.821960 0.334015
0.348511 0.845490 0.357635
0.658905 0.855072 0.351685
0.872070 0.851135 0.343964
0.968323 0.852448 0.390656
0.150391 0.908722 0.376373
0.392059 0.928955 0.400116
0.673370 0.940826 0.399628
0.866852 0.944702 0.389069
0.960480 0.944824 0.372009
0.037262 0.057312 0.380219
0.179626 0.067017 0.462311
0.610046 0.089752 0.605560
0.882568 0.147980 0.669037
0.975220 0.236633 0.701996
0.039429 0.272675 0.588593
0.257202 0.286255 0.612000
0.649902 0.312317 0.645905
0.874176 0.359253 0.661163
0.972168 0.422668 0.690796
0.039429 0.645935 0.618225
0.283783 0.642487 0.628235
0.634155 0.634735 0.635071
0.868103 0.653381 0.661316
0.963318 0.657654 0.671204
0.115356 0.840668 0.637634
0.347473 0.860382 0.657501
0.653595 0.860291 0.661163
0.864197 0.856354 0.661163
0.964447 0.859009 0.675110
0.164734 0.925140 0.651642
0.399689 0.937683 0.671265
0.678497 0.948700 0.686584
0.866791 0.952545 0.686462
0.960388 0.952545 0.690399
0.065491 0.096741 0.629028
0.237671 0.119995 0.714813
0.632385 0.169128 0.827667
0.852295 0.183105 0.840637
0.959686 0.284088 0.856384
0.081085 0.335236 0.823975
0.303680 0.344604 0.839447
0.644012 0.366852 0.853607
0.868805 0.401306 0.867798
0.967133 0.466278 0.875977
0.088898 0.654236 0.835480
0.330597 0.662445 0.850250
0.649536 0.667542 0.862305
0.870789 0.677765 0.870758
0.967804 0.690247 0.875977
0.130829 0.844635 0.827637
0.357025 0.860962 0.849213
0.654175 0.864197 0.859009
0.862915 0.862915 0.862915
0.960114 0.864197 0.868103
0.176483 0.929016 0.824951
0.408905 0.940613 0.844604
0.682190 0.952576 0.863892
0.866791 0.956451 0.868073
0.959625 0.956482 0.872009
0.167694 0.222534 0.927307
0.377838 0.242981 0.939453
0.628052 0.258209 0.928955
0.827637 0.289276 0.931671
0.936646 0.301605 0.932770
0.171844 0.413513 0.954498
0.373230 0.411469 0.951599
0.649719 0.442963 0.949799
0.849304 0.475098 0.949066
0.952545 0.492157 0.948547
0.197388 0.674805 0.944672
0.399658 0.686066 0.960175
0.663330 0.686676 0.964478
0.864197 0.698792 0.960327
0.958252 0.705658 0.956482
0.222595 0.852417 0.925873
0.418976 0.864197 0.944611
0.668335 0.868134 0.956604
0.864197 0.870758 0.960510
0.960449 0.872040 0.960449
0.177551 0.929047 0.908783
0.415710 0.940674 0.928436
0.686401 0.952545 0.948517
0.868103 0.959442 0.956238
0.959442 0.959442 0.959442
