Assets/Models/Hall/Kim_Amland_Photographic_02.cube
#Copyright: (C) Copyright 2017 Kim Amland
TITLE "Kim Amland - Photographic 02"
#LUT size
LUT_3D_SIZE 8
#data domain
#LUT data points
DOMAIN_MIN 0.000000 0.000000 0.000000
DOMAIN_MAX 0.903226 0.903226 0.903226
0.000000 0.000000 0.000000
0.044922 0.000000 0.003937
0.213928 0.007874 0.016602
0.467834 0.011841 0.033081
0.666962 0.023651 0.049042
0.809875 0.055939 0.081055
0.915405 0.108337 0.132477
0.972137 0.167450 0.191986
0.000519 0.058746 0.003937
0.062500 0.062500 0.004456
0.258331 0.070557 0.020721
0.499603 0.090363 0.037018
0.687134 0.123535 0.054382
0.823608 0.159241 0.088623
0.923309 0.206512 0.136505
0.972473 0.261139 0.192413
0.020538 0.269012 0.024109
0.079224 0.277588 0.020721
0.289368 0.277008 0.024109
0.537903 0.287018 0.043335
0.716980 0.309326 0.061523
0.849976 0.336304 0.096497
0.934631 0.368683 0.144531
0.976074 0.407318 0.202637
0.039429 0.496246 0.048492
0.109375 0.522491 0.036499
0.313904 0.520691 0.040894
0.545044 0.509888 0.043243
0.726959 0.510162 0.055176
0.858368 0.526306 0.092651
0.935608 0.545502 0.136597
0.976166 0.572662 0.194214
0.056854 0.679932 0.068970
0.138763 0.704224 0.051544
0.337341 0.698334 0.053040
0.560608 0.699554 0.064331
0.729950 0.695953 0.060791
0.858276 0.693756 0.076965
0.932678 0.700134 0.120636
0.973663 0.712219 0.172791
0.084778 0.793182 0.095123
0.185577 0.797577 0.093079
0.382141 0.814911 0.099030
0.578491 0.824524 0.097412
0.733795 0.826904 0.088776
0.855957 0.822998 0.077209
0.931732 0.822998 0.112091
0.972168 0.827026 0.149994
0.120850 0.849548 0.128479
0.230530 0.859161 0.140533
0.415894 0.875336 0.149048
0.590851 0.885223 0.144592
0.735718 0.890259 0.133911
0.850494 0.890259 0.121002
0.924072 0.889709 0.116058
0.968079 0.890259 0.148438
0.129486 0.889801 0.137268
0.247620 0.902008 0.151642
0.428436 0.917999 0.161346
0.596375 0.929108 0.160706
0.735748 0.932953 0.152039
0.844116 0.935974 0.141174
0.915955 0.936005 0.133240
0.957153 0.935974 0.125610
0.000000 0.000519 0.033813
0.049683 0.004456 0.050140
0.226349 0.012024 0.069611
0.478912 0.020233 0.099945
0.678894 0.035706 0.146210
0.817719 0.070465 0.186890
0.917999 0.121399 0.241760
0.972260 0.173065 0.297333
0.003937 0.062378 0.060974
0.063049 0.063232 0.063049
0.260101 0.074829 0.081177
0.498322 0.095734 0.111481
0.683380 0.130646 0.148682
0.817657 0.163055 0.186615
0.912994 0.207550 0.234344
0.968384 0.263123 0.293457
0.015686 0.279114 0.086456
0.082642 0.283691 0.087433
0.294067 0.285370 0.097290
0.540039 0.297974 0.128296
0.719055 0.321106 0.164886
0.844452 0.344299 0.199219
0.925171 0.372955 0.246704
0.972443 0.410919 0.304901
0.031555 0.520508 0.122925
0.111359 0.529938 0.119110
0.313904 0.525360 0.127106
0.549713 0.523743 0.138916
0.729980 0.528473 0.173828
0.856689 0.534058 0.203827
0.932709 0.553131 0.250244
0.975220 0.576843 0.305084
0.048492 0.704590 0.158295
0.139130 0.708282 0.150940
0.342377 0.704712 0.159637
0.559509 0.704437 0.171051
0.727875 0.700653 0.168823
0.854401 0.698456 0.192596
0.929474 0.704956 0.235687
0.972137 0.716125 0.288239
0.085327 0.797089 0.194733
0.193542 0.806763 0.201263
0.386475 0.822937 0.210358
0.576721 0.830872 0.206421
0.731812 0.830902 0.202301
0.854431 0.826904 0.192261
0.927765 0.827057 0.223846
0.969116 0.828400 0.268127
0.128662 0.857269 0.231476
0.239471 0.868469 0.247375
0.419128 0.882935 0.258118
0.591888 0.891479 0.252441
0.735718 0.895782 0.242645
0.850494 0.896667 0.230286
0.923584 0.894562 0.227112
0.966431 0.896545 0.262634
0.139862 0.898102 0.247009
0.255157 0.909729 0.262695
0.433716 0.925415 0.274658
0.600555 0.932922 0.273407
0.735748 0.936737 0.266418
0.846619 0.940887 0.254700
0.916016 0.940491 0.243805
0.959534 0.937317 0.230255
0.008911 0.016785 0.136627
0.054230 0.024567 0.176514
0.241638 0.032562 0.241302
0.516571 0.047760 0.290222
0.707153 0.063263 0.335999
0.839661 0.101257 0.378357
0.929504 0.145355 0.419098
0.976044 0.192841 0.450989
0.015686 0.086700 0.230743
0.073792 0.090698 0.242126
0.267731 0.095337 0.269226
0.522064 0.124420 0.302490
0.703339 0.157990 0.337769
0.831390 0.188934 0.371521
0.918335 0.231323 0.404694
0.971344 0.286407 0.443512
0.020538 0.290009 0.276489
0.091370 0.297943 0.285400
0.289337 0.289459 0.289337
0.530334 0.313904 0.317627
0.714264 0.335815 0.346008
0.829620 0.353333 0.371887
0.912872 0.379242 0.402100
0.967377 0.415955 0.438995
0.031036 0.541138 0.308838
0.119110 0.538452 0.312775
0.316193 0.536896 0.324005
0.545380 0.533112 0.333527
0.728058 0.540375 0.361023
0.850464 0.545685 0.389069
0.924896 0.559082 0.416107
0.970764 0.582001 0.447449
0.041016 0.714203 0.334564
0.142212 0.712219 0.339111
0.348419 0.712067 0.356567
0.557251 0.709961 0.364105
0.721985 0.706635 0.369965
0.850494 0.706360 0.388885
0.926727 0.712219 0.414978
0.970093 0.723511 0.444489
0.091248 0.807068 0.371918
0.199585 0.820099 0.385773
0.387604 0.833344 0.395844
0.572296 0.834930 0.394165
0.727875 0.834839 0.392883
0.846588 0.830933 0.390350
0.923950 0.830963 0.407379
0.968109 0.832306 0.432159
0.140533 0.868805 0.405396
0.249481 0.879303 0.420959
0.421082 0.890961 0.430511
0.590149 0.897949 0.426636
0.733887 0.901917 0.421600
0.846619 0.901306 0.415436
0.920990 0.901337 0.413116
0.964386 0.901306 0.427490
0.152924 0.910339 0.419800
0.266754 0.921722 0.435486
0.435883 0.932892 0.446075
0.600311 0.940125 0.447266
0.739624 0.944550 0.443054
0.846619 0.944489 0.438629
0.916107 0.945557 0.428589
0.960388 0.945618 0.419189
0.027588 0.044647 0.294708
0.074310 0.050018 0.335205
0.218994 0.056610 0.405243
0.494110 0.068207 0.490448
0.710419 0.088501 0.541473
0.856903 0.129425 0.581116
0.935638 0.166443 0.602539
0.975769 0.222717 0.627472
0.029114 0.119171 0.430481
0.091431 0.123169 0.445068
0.267395 0.132202 0.477417
0.531311 0.152161 0.527466
0.723419 0.187469 0.556732
0.848907 0.219147 0.574524
0.928680 0.262146 0.593384
0.972351 0.318329 0.621643
0.033081 0.316742 0.497925
0.115265 0.324829 0.509949
0.309692 0.328644 0.526062
0.548645 0.341888 0.545685
0.723114 0.364410 0.557129
0.838806 0.380768 0.569366
0.920593 0.407288 0.587646
0.968140 0.439880 0.612396
0.037018 0.549072 0.521210
0.125183 0.544952 0.525482
0.324860 0.541016 0.532745
0.540924 0.540924 0.540924
0.725311 0.552795 0.556335
0.845673 0.562958 0.574860
0.913055 0.566193 0.583893
0.964478 0.584656 0.602814
0.043274 0.713715 0.533142
0.147888 0.718140 0.543671
0.352692 0.718140 0.555969
0.555023 0.713440 0.559113
0.718231 0.711395 0.562927
0.846527 0.712189 0.576447
0.921204 0.718445 0.591644
0.967499 0.727783 0.608490
0.099030 0.818146 0.554901
0.201172 0.829895 0.569885
0.384766 0.838806 0.578491
0.570679 0.838684 0.578491
0.723938 0.834930 0.579315
0.842651 0.834839 0.578369
0.919922 0.834961 0.587646
0.964325 0.836304 0.604279
0.147797 0.877869 0.575256
0.253510 0.887299 0.587402
0.422668 0.896881 0.595581
0.588593 0.903320 0.597046
0.731812 0.906097 0.595551
0.844391 0.906403 0.594513
0.916992 0.905212 0.594543
0.963867 0.905212 0.604553
0.160828 0.921143 0.584869
0.271179 0.929413 0.595337
0.438934 0.937592 0.606628
0.607971 0.944763 0.615906
0.742462 0.948700 0.618896
0.846588 0.952148 0.615875
0.916016 0.952698 0.613037
0.960388 0.952087 0.611298
0.044403 0.068451 0.455353
0.095673 0.072662 0.486481
0.234802 0.080444 0.557831
0.492249 0.101196 0.644989
0.711090 0.117645 0.702484
0.857483 0.149719 0.734314
0.933411 0.184296 0.744507
0.972351 0.248810 0.761078
0.043274 0.154144 0.601929
0.118042 0.159760 0.619965
0.300995 0.177216 0.666687
0.551727 0.199615 0.708618
0.738800 0.212311 0.730072
0.856842 0.239441 0.734283
0.932709 0.287781 0.746735
0.972412 0.345520 0.763214
0.047211 0.347290 0.674408
0.143616 0.351440 0.682800
0.329529 0.359406 0.696381
0.548737 0.371307 0.709778
0.728333 0.385712 0.724518
0.851624 0.408447 0.731781
0.928741 0.435944 0.742706
0.972198 0.467560 0.755310
0.049042 0.558929 0.686584
0.155090 0.557098 0.690521
0.346680 0.559631 0.701477
0.548798 0.561920 0.710297
0.722137 0.571167 0.720184
0.846558 0.582092 0.727905
0.919952 0.592316 0.734924
0.967468 0.608765 0.745514
0.049011 0.720032 0.696533
0.154968 0.724060 0.702515
0.356232 0.722107 0.708649
0.555176 0.716919 0.710205
0.714142 0.714111 0.714203
0.842682 0.723236 0.726471
0.916992 0.727478 0.734741
0.963348 0.727905 0.735748
0.104889 0.824493 0.700439
0.205017 0.836853 0.712708
0.383972 0.842773 0.722443
0.567932 0.842682 0.723938
0.723297 0.838684 0.726471
0.840759 0.837524 0.727905
0.916992 0.838348 0.734894
0.964478 0.838837 0.739655
0.152588 0.884705 0.706421
0.256104 0.892792 0.716888
0.422760 0.902771 0.727905
0.587799 0.908783 0.732056
0.730988 0.909119 0.735687
0.842621 0.909119 0.735718
0.916016 0.908600 0.735718
0.961060 0.908783 0.743256
0.165283 0.928131 0.710205
0.276672 0.933014 0.720215
0.443451 0.941223 0.731842
0.609528 0.948761 0.743195
0.743500 0.952332 0.748871
0.846558 0.953522 0.750793
0.916016 0.954956 0.751068
0.960449 0.955597 0.754974
0.061340 0.092499 0.593994
0.127045 0.096619 0.630463
0.274017 0.115356 0.696838
0.523773 0.145264 0.777740
0.716095 0.165192 0.817322
0.836395 0.171082 0.824585
0.912415 0.213531 0.828461
0.961700 0.277649 0.843781
0.057861 0.195435 0.750366
0.155365 0.204987 0.769958
0.338165 0.224182 0.801666
0.556946 0.241241 0.823120
0.721497 0.248444 0.828064
0.840454 0.263885 0.832733
0.918579 0.315002 0.841949
0.967804 0.369781 0.852478
0.075562 0.379639 0.800476
0.171509 0.379944 0.807343
0.349274 0.384003 0.815247
0.552185 0.397034 0.827911
0.726654 0.416107 0.842194
0.851929 0.432526 0.850616
0.925903 0.460785 0.854614
0.968445 0.493744 0.859802
0.080872 0.570618 0.807434
0.183044 0.570709 0.812836
0.365601 0.577209 0.824463
0.558746 0.585022 0.834869
0.725952 0.594666 0.842987
0.850494 0.602966 0.850525
0.924805 0.615204 0.854401
0.968231 0.630157 0.859650
0.079468 0.723938 0.815186
0.187988 0.729919 0.823212
0.379303 0.730408 0.828827
0.563965 0.727905 0.834808
0.721222 0.731476 0.838715
0.843903 0.735748 0.845428
0.919983 0.739929 0.848541
0.964355 0.743591 0.852417
0.114685 0.828369 0.808777
0.216217 0.836731 0.821106
0.389069 0.845001 0.832367
0.570740 0.842773 0.834930
0.723938 0.842743 0.838745
0.838867 0.838867 0.838867
0.916016 0.842651 0.846649
0.960419 0.844116 0.847992
0.160767 0.886353 0.807434
0.264954 0.893677 0.817139
0.426880 0.904633 0.830963
0.587646 0.912048 0.838837
0.730255 0.912994 0.842651
0.842682 0.912079 0.844116
0.913086 0.912079 0.846588
0.960388 0.912079 0.847870
0.175659 0.929016 0.807648
0.286041 0.934540 0.816620
0.447052 0.944641 0.829437
0.611786 0.948853 0.841644
0.743561 0.954468 0.848022
0.846588 0.956482 0.850616
0.916046 0.956451 0.851837
0.960510 0.956482 0.852020
0.101318 0.147705 0.779663
0.186462 0.158661 0.811584
0.352631 0.179535 0.856232
0.548492 0.200409 0.883087
0.697845 0.211151 0.884888
0.811310 0.222046 0.884613
0.896301 0.234375 0.888550
0.948639 0.293365 0.896545
0.109436 0.254028 0.878448
0.208771 0.261993 0.886292
0.376068 0.275879 0.894318
0.549805 0.284454 0.892487
0.703430 0.299744 0.892639
0.820404 0.320068 0.896210
0.904755 0.336304 0.900665
0.955902 0.387543 0.904816
0.120728 0.416290 0.899689
0.213623 0.411346 0.901001
0.375793 0.412598 0.901764
0.561340 0.431458 0.905273
0.719879 0.452454 0.908386
0.836517 0.469055 0.910614
0.914337 0.483154 0.912018
0.960327 0.513245 0.913666
0.126007 0.581512 0.892487
0.229553 0.586853 0.899750
0.392822 0.595734 0.908417
0.571350 0.603363 0.914307
0.727905 0.612427 0.916595
0.846649 0.621521 0.917023
0.919617 0.629303 0.917725
0.963562 0.643280 0.918854
0.134216 0.731842 0.892670
0.242432 0.735718 0.900482
0.407135 0.739624 0.908203
0.576721 0.739624 0.912109
0.726990 0.740631 0.915131
0.846619 0.744354 0.916992
0.918365 0.748993 0.920105
0.963776 0.753082 0.920074
0.159729 0.832336 0.882874
0.262390 0.840210 0.892975
0.416992 0.846649 0.903046
0.583771 0.846558 0.908203
0.727905 0.846619 0.911804
0.842712 0.846588 0.913086
0.916016 0.848083 0.916016
0.960388 0.850586 0.916992
0.175720 0.886353 0.873840
0.280212 0.894257 0.884613
0.437042 0.904694 0.896881
0.593933 0.912140 0.907318
0.731812 0.914093 0.912170
0.842621 0.913086 0.912079
0.913086 0.913086 0.913086
0.960510 0.916168 0.916016
0.177612 0.929108 0.870026
0.290070 0.933502 0.880951
0.454376 0.944641 0.892944
0.615692 0.949921 0.904297
0.745728 0.956604 0.911774
0.847687 0.956238 0.913513
0.913055 0.956207 0.915985
0.959442 0.956207 0.916107
0.167694 0.222534 0.927307
0.271179 0.233612 0.935455
0.415588 0.246185 0.939514
0.559570 0.254486 0.932800
0.692535 0.265381 0.928955
0.803406 0.285004 0.928772
0.889526 0.299927 0.932983
0.936646 0.301605 0.932770
0.171295 0.320282 0.955566
0.273621 0.323761 0.952545
0.411438 0.326172 0.944580
0.561310 0.336060 0.937653
0.704468 0.355865 0.939758
0.815155 0.377502 0.940948
0.897797 0.393463 0.943665
0.945221 0.398651 0.944244
0.174866 0.446014 0.951660
0.267548 0.442902 0.953125
0.415497 0.451508 0.953400
0.578156 0.470795 0.953125
0.720215 0.489746 0.953156
0.830688 0.505615 0.952606
0.906006 0.519135 0.952545
0.952515 0.524292 0.952026
0.189423 0.600220 0.944489
0.288513 0.607758 0.955444
0.427704 0.615906 0.962646
0.588593 0.621948 0.964478
0.731812 0.629974 0.960388
0.840942 0.638062 0.957825
0.912567 0.645874 0.956451
0.956390 0.651855 0.956512
0.202972 0.739716 0.943604
0.304199 0.743591 0.950043
0.439514 0.747620 0.956146
0.592804 0.747406 0.960236
0.731842 0.747894 0.963470
0.846619 0.751556 0.960175
0.916016 0.756195 0.960449
0.960083 0.760162 0.960327
0.218353 0.836243 0.930176
0.316101 0.842987 0.940521
0.447876 0.847992 0.948486
0.598511 0.850586 0.956421
0.731812 0.850586 0.959259
0.842712 0.850586 0.960480
0.916016 0.851929 0.960419
0.960480 0.855469 0.960388
0.227173 0.890289 0.917206
0.328705 0.896637 0.928497
0.462250 0.905029 0.940826
0.609589 0.912231 0.949951
0.735931 0.915985 0.956604
0.844116 0.915955 0.956390
0.913086 0.916992 0.959442
0.959656 0.916962 0.960114
0.177551 0.929047 0.908783
0.293671 0.933563 0.916809
0.457001 0.944031 0.932831
0.619507 0.949890 0.944611
0.748871 0.956512 0.952393
0.848022 0.958649 0.956451
0.916107 0.959442 0.956207
0.959442 0.959442 0.959442
