Assets/Models/Hall/Kim_Amland_Photographic_02.cube
#Copyright: (C) Copyright 2017 Kim Amland
TITLE "Kim Amland - Photographic 02"
#LUT size
LUT_3D_SIZE 32
#data domain
DOMAIN_MIN 0.0 0.0 0.0
DOMAIN_MAX 1.0 1.0 1.0
#LUT data points
0.000000 0.000000 0.000000
0.007202 0.000000 0.000000
0.015228 0.000000 0.000000
0.027100 0.000000 0.000153
0.044922 0.000000 0.003937
0.073029 0.003937 0.004578
0.113068 0.003937 0.008667
0.161316 0.003937 0.012726
0.213928 0.007874 0.016602
0.275970 0.007904 0.020844
0.343140 0.009186 0.024933
0.407593 0.011841 0.028992
0.467834 0.011841 0.033081
0.523193 0.015778 0.037140
0.575104 0.016479 0.041138
0.623962 0.019714 0.045349
0.666962 0.023651 0.049042
0.707245 0.026886 0.053162
0.745483 0.033386 0.061066
0.777618 0.043701 0.071106
0.809875 0.055939 0.081055
0.839447 0.068054 0.092896
0.867706 0.077118 0.103546
0.892090 0.089172 0.115662
0.915405 0.108337 0.132477
0.937042 0.132751 0.158661
0.953705 0.149750 0.175232
0.963989 0.160217 0.187653
0.972137 0.167450 0.191986
0.980133 0.168671 0.196167
0.987823 0.172638 0.199921
0.992126 0.172638 0.204010
0.000000 0.007996 0.000000
0.007996 0.007996 0.000000
0.016296 0.007996 0.000000
0.030151 0.007996 0.000366
0.050873 0.007996 0.003937
0.081238 0.008636 0.004578
0.122437 0.011932 0.008667
0.169373 0.011932 0.012726
0.225372 0.012970 0.016785
0.286652 0.015900 0.020844
0.351349 0.017181 0.024933
0.415588 0.019836 0.028992
0.474731 0.023773 0.033081
0.529236 0.024200 0.037140
0.580933 0.028503 0.041138
0.627991 0.033691 0.045013
0.671051 0.040131 0.050049
0.711334 0.045624 0.056366
0.747833 0.055847 0.063049
0.781586 0.065948 0.072845
0.813721 0.077576 0.083252
0.842194 0.089569 0.093292
0.870239 0.097931 0.105225
0.891907 0.110046 0.116364
0.916168 0.129486 0.135010
0.939240 0.152954 0.158478
0.955780 0.168152 0.175232
0.963928 0.178589 0.186035
0.972137 0.184448 0.191711
0.980103 0.188385 0.196106
0.987823 0.188568 0.199799
0.992126 0.192596 0.200134
0.000000 0.019928 0.000000
0.007996 0.019989 0.000000
0.020020 0.020020 0.000000
0.033447 0.019958 0.001801
0.054688 0.020111 0.003937
0.088440 0.020233 0.007874
0.132202 0.020691 0.011841
0.180786 0.024170 0.014557
0.233826 0.024963 0.016785
0.298737 0.028107 0.020844
0.363129 0.029907 0.024933
0.422546 0.033447 0.028992
0.482513 0.037048 0.033081
0.534821 0.040955 0.037598
0.586212 0.046021 0.041595
0.633087 0.054352 0.047272
0.675201 0.062408 0.051147
0.715149 0.070557 0.056976
0.751251 0.081451 0.065125
0.785492 0.092316 0.072998
0.815491 0.101776 0.084595
0.846008 0.113953 0.096741
0.871674 0.122009 0.107788
0.895966 0.134338 0.117401
0.919342 0.152893 0.136566
0.940643 0.175751 0.158783
0.955811 0.190826 0.175446
0.963898 0.200989 0.183472
0.972107 0.205048 0.191742
0.980164 0.209290 0.195862
0.987823 0.213196 0.199829
0.992126 0.213196 0.200134
0.000000 0.034271 0.001099
0.007996 0.034241 0.001099
0.020233 0.033478 0.003937
0.033875 0.033813 0.003937
0.058563 0.033752 0.004303
0.095825 0.036774 0.008026
0.141144 0.037384 0.012054
0.189880 0.037720 0.015839
0.246277 0.041779 0.019623
0.310577 0.045593 0.023651
0.374512 0.049805 0.027618
0.434235 0.053864 0.031708
0.490570 0.059357 0.035645
0.542877 0.063538 0.039581
0.593140 0.071075 0.043701
0.640137 0.079315 0.048370
0.681915 0.088531 0.053040
0.719757 0.098846 0.057556
0.755707 0.110291 0.064911
0.789490 0.118561 0.075439
0.818512 0.130249 0.087555
0.850067 0.138641 0.097382
0.875854 0.148682 0.108673
0.899231 0.159149 0.119812
0.920074 0.178497 0.136566
0.941254 0.200562 0.158783
0.955811 0.215179 0.175446
0.964722 0.225128 0.183746
0.971954 0.229950 0.191742
0.980164 0.234009 0.195923
0.987823 0.237946 0.199829
0.992126 0.241577 0.201385
0.000519 0.058746 0.003937
0.011932 0.058472 0.003937
0.021027 0.061646 0.004028
0.036743 0.061096 0.004364
0.062500 0.062500 0.004456
0.103607 0.062531 0.008545
0.149170 0.062836 0.012604
0.200195 0.066498 0.016663
0.258331 0.070557 0.020721
0.323883 0.074615 0.024780
0.386536 0.078552 0.028870
0.443817 0.083649 0.032959
0.499603 0.090363 0.037018
0.551575 0.096344 0.041016
0.601105 0.104889 0.044922
0.646393 0.113525 0.049255
0.687134 0.123535 0.054382
0.725281 0.131470 0.060944
0.761322 0.139404 0.068726
0.793518 0.150757 0.077332
0.823608 0.159241 0.088623
0.853821 0.167389 0.099823
0.879883 0.178864 0.110229
0.903229 0.189850 0.121277
0.923309 0.206512 0.136505
0.943115 0.229034 0.159027
0.957855 0.245148 0.175201
0.966827 0.254059 0.186218
0.972473 0.261139 0.192413
0.980164 0.265564 0.196350
0.988159 0.266113 0.200409
0.992126 0.270233 0.203979
0.004303 0.101440 0.008270
0.012024 0.103729 0.008270
0.024170 0.103333 0.008270
0.038086 0.105713 0.008392
0.066986 0.105713 0.008545
0.107941 0.105286 0.011810
0.156464 0.105743 0.012604
0.211304 0.107422 0.016052
0.270447 0.111816 0.023071
0.336487 0.115875 0.027588
0.398071 0.119812 0.031403
0.455688 0.124420 0.035492
0.509949 0.132019 0.039429
0.561462 0.136627 0.043365
0.609222 0.143982 0.047333
0.654602 0.152100 0.051880
0.695160 0.159882 0.057068
0.731903 0.167877 0.061157
0.765564 0.175659 0.069458
0.797852 0.186493 0.079010
0.829926 0.195740 0.091339
0.859741 0.205688 0.101288
0.883636 0.215851 0.112579
0.907410 0.225037 0.121460
0.925140 0.241669 0.136993
0.945313 0.263275 0.160217
0.959686 0.278198 0.177399
0.968140 0.287659 0.187897
0.975403 0.294220 0.195740
0.980133 0.298187 0.199768
0.988159 0.302307 0.203735
0.992126 0.302765 0.207764
0.008667 0.152649 0.012604
0.015900 0.152283 0.012604
0.028137 0.154724 0.012604
0.042145 0.154633 0.012604
0.070862 0.156372 0.012604
0.111511 0.154419 0.015778
0.161713 0.154510 0.015625
0.217041 0.154633 0.017883
0.280243 0.158264 0.023590
0.348267 0.162048 0.028717
0.410004 0.166290 0.032837
0.465637 0.170471 0.036896
0.519531 0.175964 0.040894
0.571899 0.180847 0.044769
0.618683 0.188263 0.048767
0.662781 0.195801 0.052551
0.701935 0.202850 0.057648
0.737274 0.211639 0.064972
0.773529 0.220459 0.072632
0.805786 0.228607 0.081482
0.834900 0.238617 0.092743
0.864777 0.248077 0.104218
0.890228 0.256073 0.112732
0.910370 0.264740 0.123657
0.928925 0.281158 0.140533
0.947662 0.302216 0.162964
0.960022 0.315552 0.179138
0.968414 0.324219 0.191040
0.976135 0.330841 0.197937
0.980194 0.334381 0.203583
0.988159 0.338623 0.207703
0.992126 0.339539 0.208466
0.012726 0.207886 0.020416
0.020721 0.208344 0.020416
0.032623 0.211487 0.018524
0.048004 0.212341 0.016052
0.075165 0.212341 0.016663
0.117157 0.212280 0.019714
0.166534 0.212280 0.020386
0.220947 0.212463 0.020599
0.286224 0.212494 0.023651
0.356995 0.213257 0.028717
0.418121 0.217407 0.032837
0.476563 0.221771 0.038422
0.529785 0.228210 0.043243
0.580841 0.232727 0.047028
0.628021 0.240570 0.051758
0.670746 0.246338 0.056091
0.708679 0.253021 0.060791
0.745422 0.260864 0.064392
0.777405 0.269287 0.073425
0.809662 0.277344 0.084656
0.841949 0.285461 0.095123
0.871704 0.293579 0.105621
0.894897 0.301086 0.116241
0.913086 0.309174 0.125092
0.931915 0.324280 0.141144
0.950714 0.342346 0.164032
0.963196 0.355194 0.181641
0.970612 0.363556 0.192108
0.976074 0.367584 0.199554
0.980255 0.371735 0.203827
0.988068 0.375488 0.207886
0.992126 0.375458 0.211853
0.020538 0.269012 0.024109
0.028564 0.269867 0.024109
0.036987 0.273163 0.024658
0.054474 0.277405 0.024017
0.079224 0.277588 0.020721
0.123932 0.281189 0.023071
0.170563 0.280151 0.024353
0.227661 0.277863 0.024109
0.289368 0.277008 0.024109
0.360992 0.276306 0.027588
0.424286 0.277161 0.031799
0.482086 0.281403 0.037384
0.537903 0.287018 0.043335
0.589172 0.292816 0.048615
0.635651 0.297180 0.052795
0.678955 0.304657 0.056396
0.716980 0.309326 0.061523
0.752563 0.316132 0.068817
0.785614 0.321747 0.076385
0.817841 0.328827 0.085571
0.849976 0.336304 0.096497
0.878357 0.344421 0.108521
0.899689 0.349030 0.116486
0.917053 0.357025 0.127533
0.934631 0.368683 0.144531
0.951416 0.382996 0.166412
0.963928 0.395508 0.183228
0.970917 0.402557 0.194092
0.976074 0.407318 0.202637
0.980255 0.410675 0.207520
0.987823 0.412079 0.211731
0.992126 0.414886 0.212555
0.024780 0.336487 0.032684
0.032806 0.336273 0.032684
0.045349 0.340729 0.031342
0.061981 0.342255 0.028351
0.087494 0.348053 0.026459
0.129425 0.348450 0.027039
0.176483 0.348175 0.028351
0.233124 0.348083 0.028748
0.297455 0.344360 0.031525
0.361969 0.344391 0.031525
0.425354 0.340240 0.031555
0.484741 0.344421 0.035492
0.541290 0.345093 0.040894
0.593475 0.351471 0.047516
0.642944 0.355408 0.052795
0.685699 0.359772 0.058960
0.721771 0.363983 0.064453
0.757355 0.368988 0.068817
0.789398 0.373047 0.076691
0.824158 0.379700 0.086639
0.855316 0.384064 0.097900
0.882599 0.390381 0.108521
0.903564 0.396088 0.116882
0.919739 0.400452 0.128693
0.936615 0.411377 0.144409
0.952850 0.423309 0.166687
0.963898 0.433716 0.182953
0.970886 0.439911 0.195435
0.976074 0.444214 0.203339
0.980347 0.448090 0.207489
0.987823 0.449219 0.211578
0.992126 0.452240 0.215790
0.031555 0.391724 0.039429
0.039703 0.391724 0.038879
0.051697 0.396027 0.036499
0.066223 0.400970 0.031830
0.095245 0.405151 0.028351
0.136200 0.408691 0.028900
0.182861 0.408600 0.031555
0.237854 0.404724 0.032837
0.301666 0.404663 0.035278
0.368805 0.400787 0.036774
0.428253 0.399536 0.035492
0.484680 0.396912 0.035492
0.541168 0.399536 0.039429
0.595673 0.401245 0.043671
0.644135 0.404480 0.051208
0.688538 0.407990 0.056915
0.726868 0.412048 0.063385
0.762207 0.417084 0.068573
0.796356 0.421234 0.076477
0.828583 0.425354 0.088196
0.856903 0.429535 0.096619
0.882507 0.434875 0.108521
0.903992 0.438751 0.116547
0.919678 0.444427 0.126434
0.936768 0.452881 0.143188
0.952393 0.464996 0.165649
0.963928 0.474792 0.182587
0.970856 0.481598 0.192993
0.976044 0.487610 0.201630
0.980347 0.489624 0.206177
0.986694 0.492401 0.210327
0.992126 0.493713 0.214600
0.035492 0.441467 0.044800
0.044891 0.444183 0.043274
0.056763 0.448334 0.040527
0.074310 0.453644 0.035980
0.102661 0.461884 0.032959
0.141235 0.465057 0.032959
0.188599 0.465088 0.034454
0.245148 0.462555 0.036377
0.309418 0.461121 0.039429
0.372833 0.457306 0.040771
0.432220 0.453369 0.040771
0.488678 0.453278 0.039429
0.544617 0.449371 0.039429
0.595642 0.449615 0.041016
0.644012 0.452332 0.046906
0.688507 0.455933 0.052002
0.729065 0.459839 0.060181
0.765015 0.463531 0.068451
0.800323 0.468567 0.076843
0.831573 0.472626 0.086823
0.858368 0.475311 0.096619
0.883820 0.480652 0.104706
0.903992 0.484833 0.114197
0.919739 0.490143 0.124878
0.935608 0.498383 0.140564
0.951569 0.510620 0.163513
0.963898 0.520142 0.179260
0.969818 0.526215 0.190979
0.976074 0.530273 0.198181
0.980347 0.532776 0.203369
0.984131 0.536377 0.207642
0.992126 0.536621 0.210388
0.039429 0.496246 0.048492
0.048615 0.498108 0.047119
0.061157 0.502808 0.044434
0.078735 0.512238 0.040527
0.109375 0.522491 0.036499
0.147949 0.525482 0.035492
0.194977 0.525513 0.037018
0.252533 0.522034 0.040131
0.313904 0.520691 0.040894
0.377106 0.517395 0.043243
0.433685 0.513824 0.044708
0.490021 0.509766 0.044891
0.545044 0.509888 0.043243
0.597290 0.506989 0.043243
0.643951 0.505768 0.044891
0.687469 0.509491 0.048889
0.726959 0.510162 0.055176
0.764008 0.514252 0.063232
0.800262 0.518250 0.073425
0.832642 0.523621 0.084412
0.858368 0.526306 0.092651
0.883789 0.530243 0.101715
0.903687 0.534271 0.111237
0.919739 0.538330 0.120941
0.935608 0.545502 0.136597
0.951508 0.555847 0.159302
0.963928 0.563568 0.175293
0.968140 0.568512 0.186920
0.976166 0.572662 0.194214
0.980133 0.573059 0.197968
0.984131 0.576843 0.202332
0.992126 0.576813 0.206451
0.043549 0.550385 0.052673
0.052795 0.552582 0.052551
0.067871 0.558502 0.048370
0.086517 0.567841 0.044434
0.115784 0.578186 0.039429
0.156036 0.582062 0.039429
0.203003 0.581360 0.040161
0.257721 0.577026 0.042816
0.320251 0.572876 0.044189
0.381317 0.569824 0.045197
0.437866 0.568237 0.047363
0.492554 0.566254 0.048645
0.548737 0.566498 0.048645
0.599579 0.564636 0.047180
0.644928 0.562347 0.048645
0.687714 0.562256 0.049255
0.725891 0.562012 0.052216
0.764069 0.564331 0.057770
0.797882 0.567505 0.066681
0.830170 0.571899 0.078583
0.858307 0.574463 0.088623
0.882629 0.577301 0.097534
0.903778 0.579651 0.107117
0.917175 0.583771 0.116638
0.935303 0.588806 0.132721
0.951630 0.596924 0.154419
0.961853 0.604279 0.170471
0.968170 0.608429 0.181793
0.976196 0.609436 0.189362
0.980133 0.613129 0.194092
0.984283 0.613495 0.198242
0.992126 0.615387 0.199921
0.048767 0.597595 0.058990
0.059509 0.601593 0.056519
0.073425 0.608856 0.052155
0.094452 0.618317 0.048126
0.123260 0.628357 0.043274
0.162445 0.630920 0.043274
0.209564 0.628448 0.043274
0.264313 0.625671 0.044250
0.324707 0.620911 0.046875
0.385162 0.618835 0.048096
0.441833 0.617157 0.051453
0.496552 0.617188 0.052795
0.552826 0.616547 0.053528
0.601288 0.616028 0.053528
0.647278 0.613068 0.052795
0.689667 0.612671 0.052795
0.727264 0.612213 0.053375
0.764069 0.610931 0.056854
0.796326 0.612213 0.062195
0.829559 0.614746 0.073242
0.858276 0.617035 0.084167
0.882538 0.618958 0.093536
0.902069 0.622009 0.102966
0.916290 0.625397 0.113525
0.932648 0.629181 0.128784
0.951599 0.636292 0.149963
0.961884 0.640778 0.165588
0.968109 0.643585 0.177063
0.975677 0.647339 0.183594
0.980133 0.647675 0.187988
0.984283 0.649414 0.192017
0.992126 0.651611 0.194244
0.052917 0.641510 0.062531
0.065063 0.645599 0.060577
0.081451 0.651947 0.056488
0.102325 0.662964 0.052277
0.131104 0.670074 0.046906
0.168030 0.672180 0.045013
0.215210 0.668976 0.045013
0.271606 0.665344 0.046906
0.330902 0.662354 0.048737
0.390228 0.659973 0.052032
0.445740 0.660767 0.054932
0.501526 0.661133 0.056732
0.554657 0.661133 0.059357
0.603607 0.659973 0.059540
0.649292 0.658112 0.058960
0.689880 0.658508 0.056732
0.729980 0.656036 0.056519
0.764069 0.654236 0.058655
0.796234 0.654388 0.061066
0.828583 0.654175 0.069000
0.858276 0.657318 0.078827
0.882538 0.658295 0.089386
0.900024 0.659637 0.099121
0.916443 0.662262 0.109406
0.932678 0.666321 0.124451
0.949860 0.671356 0.145844
0.959900 0.675354 0.161011
0.968079 0.679047 0.170654
0.975250 0.679932 0.178162
0.980133 0.679901 0.182220
0.984283 0.683838 0.186279
0.990234 0.683838 0.189575
0.056854 0.679932 0.068970
0.070007 0.684967 0.064575
0.089050 0.691101 0.061401
0.110565 0.699799 0.056488
0.138763 0.704224 0.051544
0.175720 0.705231 0.049042
0.223145 0.703583 0.049042
0.276642 0.700439 0.049042
0.337341 0.698334 0.053040
0.397125 0.698395 0.056580
0.453308 0.699524 0.060272
0.507202 0.699554 0.060791
0.560608 0.699554 0.064331
0.607300 0.699554 0.064850
0.651337 0.698395 0.064087
0.692780 0.698212 0.062775
0.729950 0.695953 0.060791
0.764862 0.694489 0.062012
0.800354 0.694733 0.063660
0.828552 0.693756 0.069092
0.858276 0.693756 0.076965
0.882690 0.694611 0.084900
0.900085 0.696014 0.095398
0.915771 0.696442 0.105652
0.932678 0.700134 0.120636
0.949036 0.704163 0.140198
0.960083 0.708099 0.154907
0.968079 0.711853 0.165558
0.973663 0.712219 0.172791
0.980164 0.712219 0.177368
0.984283 0.714691 0.181274
0.988190 0.716125 0.182281
0.064362 0.717010 0.072784
0.077087 0.720978 0.069824
0.096802 0.724823 0.066498
0.119202 0.730621 0.060669
0.147949 0.734619 0.056702
0.185028 0.734467 0.055237
0.231415 0.732849 0.054108
0.286407 0.732697 0.056396
0.345856 0.733276 0.057587
0.405090 0.734741 0.060760
0.460236 0.736664 0.064972
0.512848 0.736603 0.066956
0.564941 0.736572 0.068909
0.610870 0.736603 0.068848
0.654022 0.736603 0.068573
0.693573 0.735474 0.067535
0.731018 0.734375 0.066772
0.766144 0.732697 0.064972
0.800232 0.732056 0.066071
0.830109 0.730316 0.069092
0.858276 0.728638 0.074158
0.879883 0.728607 0.082947
0.899780 0.731079 0.093170
0.915833 0.731720 0.101654
0.932007 0.732605 0.116974
0.948364 0.736603 0.136230
0.960297 0.740601 0.149719
0.968262 0.741333 0.158356
0.972198 0.744507 0.166077
0.980194 0.744476 0.170288
0.984283 0.744476 0.174286
0.988220 0.746368 0.177307
0.068726 0.747009 0.080292
0.084778 0.751221 0.076813
0.105408 0.752167 0.072876
0.130249 0.755249 0.068970
0.158600 0.758026 0.066498
0.197235 0.758759 0.064301
0.244812 0.759888 0.065033
0.298523 0.762817 0.067108
0.356445 0.764954 0.068481
0.414246 0.767883 0.070526
0.468353 0.768890 0.072510
0.520660 0.768860 0.072754
0.569031 0.772705 0.072632
0.615021 0.772858 0.074158
0.657104 0.772858 0.072937
0.694489 0.769012 0.072937
0.731842 0.768860 0.071320
0.768005 0.768890 0.070313
0.800262 0.768280 0.068665
0.830109 0.764954 0.068878
0.858276 0.764954 0.074158
0.879883 0.764954 0.081177
0.899872 0.764954 0.089325
0.915833 0.764954 0.101349
0.931702 0.765106 0.114410
0.947571 0.768860 0.132446
0.959991 0.771576 0.145203
0.967041 0.772827 0.153625
0.972168 0.773926 0.160339
0.980194 0.774475 0.164490
0.984161 0.774872 0.166656
0.988190 0.776886 0.170410
0.077087 0.773132 0.084503
0.095154 0.773285 0.084900
0.117218 0.775482 0.080719
0.142181 0.777039 0.078949
0.172913 0.779205 0.079132
0.211700 0.781677 0.079132
0.260895 0.783966 0.078949
0.314117 0.787842 0.081451
0.369904 0.791840 0.082672
0.423950 0.794922 0.083008
0.476135 0.798828 0.083008
0.524750 0.798889 0.083008
0.574310 0.801270 0.083099
0.618958 0.802765 0.081116
0.658844 0.802704 0.080963
0.697540 0.802795 0.080322
0.733032 0.801147 0.076843
0.767975 0.799133 0.076813
0.800232 0.798706 0.072845
0.830078 0.797424 0.073059
0.858368 0.797363 0.074341
0.879883 0.795044 0.081177
0.899872 0.795044 0.088898
0.915833 0.795044 0.097473
0.931702 0.797363 0.112518
0.947693 0.798828 0.128235
0.958710 0.798981 0.141235
0.965149 0.801361 0.148438
0.972107 0.802704 0.154022
0.979645 0.802704 0.158173
0.984161 0.802673 0.162109
0.988190 0.802643 0.162537
0.084778 0.793182 0.095123
0.105072 0.793121 0.092743
0.128143 0.793762 0.092743
0.154022 0.797028 0.091095
0.185577 0.797577 0.093079
0.226440 0.801636 0.095123
0.275818 0.805634 0.095703
0.328186 0.809540 0.099030
0.382141 0.814911 0.099030
0.434723 0.817688 0.099030
0.483032 0.820618 0.099030
0.531372 0.823029 0.099030
0.578491 0.824524 0.097412
0.621399 0.826935 0.093414
0.661163 0.827026 0.091003
0.698700 0.827026 0.088776
0.733795 0.826904 0.088776
0.767975 0.826965 0.084778
0.800232 0.825165 0.081116
0.830109 0.823151 0.081055
0.855957 0.822998 0.077209
0.879883 0.822998 0.081177
0.899872 0.822998 0.088898
0.913330 0.823029 0.097565
0.931732 0.822998 0.112091
0.947754 0.823029 0.128143
0.957886 0.823578 0.136932
0.964233 0.824554 0.145508
0.972168 0.827026 0.149994
0.979614 0.827026 0.153870
0.984192 0.827026 0.156952
0.988190 0.827026 0.158356
0.097015 0.809204 0.104706
0.116913 0.809296 0.104706
0.139832 0.813232 0.104706
0.166107 0.813141 0.105072
0.198975 0.817139 0.107239
0.240997 0.821136 0.111359
0.289459 0.824982 0.112091
0.340149 0.829559 0.115143
0.392029 0.833679 0.115143
0.442871 0.836731 0.115143
0.488464 0.840637 0.115143
0.536835 0.842072 0.113800
0.582367 0.844635 0.111298
0.623932 0.846222 0.108643
0.663177 0.848511 0.104614
0.699524 0.848511 0.101410
0.735107 0.848511 0.100739
0.767944 0.848511 0.096954
0.800262 0.847260 0.093292
0.828766 0.844635 0.091614
0.854370 0.844604 0.089203
0.878632 0.844604 0.084869
0.896088 0.844604 0.089600
0.912415 0.844604 0.097565
0.928802 0.844604 0.112091
0.945984 0.844604 0.126129
0.955963 0.844604 0.136566
0.964142 0.846313 0.143677
0.972260 0.847229 0.148712
0.976135 0.847229 0.150177
0.984192 0.847229 0.152832
0.988190 0.847229 0.154175
0.104828 0.822723 0.112488
0.125183 0.825287 0.112976
0.149384 0.825531 0.116638
0.177032 0.829285 0.117126
0.210724 0.833344 0.120483
0.253113 0.837280 0.123413
0.301666 0.841187 0.125275
0.351013 0.845001 0.127228
0.400208 0.848877 0.128571
0.449432 0.852722 0.128540
0.495300 0.855225 0.128265
0.539612 0.856720 0.126038
0.584961 0.860657 0.124390
0.625519 0.860840 0.120544
0.665222 0.863892 0.117340
0.699402 0.864532 0.115692
0.735748 0.864532 0.112671
0.767975 0.864532 0.109497
0.797974 0.864532 0.105469
0.826416 0.864716 0.101685
0.854401 0.860840 0.101105
0.875977 0.860840 0.096893
0.895905 0.860840 0.093475
0.911896 0.860840 0.101257
0.928009 0.860840 0.112091
0.943817 0.860840 0.126129
0.956421 0.863922 0.136841
0.964325 0.864502 0.140961
0.971497 0.864532 0.145020
0.976318 0.864532 0.149139
0.984161 0.864502 0.150024
0.988220 0.864563 0.152832
0.112610 0.837372 0.120453
0.132965 0.837311 0.124603
0.158020 0.841339 0.124603
0.185913 0.843109 0.128418
0.221954 0.845551 0.131775
0.263580 0.849609 0.133392
0.311340 0.854004 0.136261
0.359894 0.858826 0.139435
0.408325 0.863037 0.140198
0.454956 0.864899 0.140198
0.499207 0.868744 0.139496
0.543640 0.871399 0.136505
0.587738 0.872894 0.134155
0.628937 0.875519 0.132507
0.665161 0.876587 0.128571
0.700653 0.876434 0.126068
0.735718 0.878021 0.124542
0.767975 0.878021 0.120575
0.798096 0.878021 0.117249
0.826202 0.877136 0.113800
0.851471 0.876495 0.112946
0.874634 0.876495 0.109009
0.892212 0.876678 0.104736
0.908386 0.876526 0.104004
0.925629 0.876495 0.113190
0.943848 0.877075 0.128143
0.954559 0.877075 0.136566
0.962769 0.877106 0.143250
0.968445 0.877075 0.145081
0.976288 0.877075 0.149139
0.980896 0.877075 0.149139
0.988190 0.877075 0.153046
0.120850 0.849548 0.128479
0.140930 0.851074 0.132721
0.166412 0.853546 0.133545
0.195221 0.855682 0.136383
0.230530 0.859161 0.140533
0.273773 0.863190 0.143982
0.320160 0.867126 0.145905
0.367920 0.871124 0.148010
0.415894 0.875336 0.149048
0.460419 0.879333 0.148651
0.503265 0.881256 0.148010
0.547516 0.883362 0.146576
0.590851 0.885223 0.144592
0.629028 0.887421 0.142151
0.666840 0.888611 0.139984
0.701904 0.890350 0.136688
0.735718 0.890259 0.133911
0.767975 0.890228 0.130890
0.796539 0.890259 0.128876
0.826263 0.890259 0.124847
0.850494 0.890259 0.121002
0.872040 0.890259 0.118134
0.891998 0.890228 0.116852
0.908051 0.889526 0.113800
0.924072 0.889709 0.116058
0.940063 0.890259 0.128113
0.952545 0.890259 0.137573
0.960236 0.890228 0.144806
0.968079 0.890259 0.148438
0.972900 0.890228 0.149139
0.980255 0.890259 0.149139
0.988373 0.890259 0.153046
0.128540 0.863312 0.136414
0.150330 0.865387 0.140656
0.177460 0.869293 0.142365
0.206055 0.870941 0.144958
0.242340 0.875000 0.148651
0.283600 0.878296 0.152557
0.330139 0.882416 0.156219
0.376526 0.885620 0.157776
0.422943 0.889404 0.159698
0.467072 0.892670 0.159729
0.509491 0.895569 0.158875
0.551544 0.897369 0.156036
0.592896 0.899689 0.154755
0.632751 0.901428 0.151947
0.669220 0.902954 0.150482
0.703461 0.904449 0.148529
0.735748 0.904541 0.144806
0.767975 0.905884 0.141968
0.796326 0.905884 0.139099
0.822388 0.905884 0.136627
0.848053 0.905884 0.132813
0.871246 0.905914 0.128906
0.888123 0.905914 0.128845
0.904083 0.905945 0.124878
0.920715 0.904480 0.120758
0.935760 0.906006 0.128571
0.948578 0.905914 0.136322
0.956696 0.905914 0.141418
0.964447 0.905914 0.143951
0.972382 0.905884 0.145630
0.976776 0.905884 0.145660
0.984314 0.905914 0.147827
0.133362 0.877319 0.141235
0.156952 0.877808 0.144775
0.181793 0.881561 0.148499
0.210754 0.884003 0.152435
0.247009 0.887817 0.156647
0.291260 0.890900 0.158752
0.335724 0.893921 0.161652
0.382904 0.897980 0.164001
0.427063 0.901398 0.164337
0.471100 0.904938 0.164337
0.512054 0.907654 0.163971
0.555634 0.909454 0.164093
0.596466 0.912659 0.160736
0.634644 0.913605 0.160217
0.670654 0.916016 0.156860
0.703461 0.916656 0.155914
0.735748 0.918091 0.152313
0.768250 0.918701 0.150024
0.796326 0.920502 0.146118
0.822235 0.920441 0.143585
0.846558 0.920471 0.140717
0.868103 0.920502 0.136810
0.884979 0.920532 0.135284
0.901245 0.918854 0.132629
0.917480 0.918793 0.128937
0.933929 0.918793 0.125610
0.944183 0.918762 0.129364
0.953857 0.918793 0.133698
0.960632 0.918762 0.133789
0.968719 0.918762 0.135956
0.976349 0.918762 0.138062
0.982574 0.918762 0.137756
0.133301 0.885956 0.141174
0.157562 0.885590 0.145050
0.182159 0.889648 0.149353
0.210815 0.893890 0.150635
0.247284 0.894989 0.154846
0.291840 0.897980 0.157410
0.337952 0.901855 0.161499
0.384399 0.905945 0.164642
0.430634 0.910065 0.164642
0.471802 0.913910 0.164642
0.513306 0.917267 0.164642
0.556213 0.919861 0.164642
0.596375 0.920990 0.162781
0.635284 0.923462 0.160706
0.671204 0.925049 0.158478
0.703461 0.924805 0.156952
0.735748 0.927338 0.152832
0.765747 0.929016 0.150848
